X:54
T: Weihnachtslied, S. 19f
N: L0015
O: Luxemburg
S: Die Luxemburger Volkslieder lterer Zeit, Luxemburg 1904 posth.]
R: geistliches, religises Lied]
M: 3/4
L: 1/4
K: F
 | _A3 | G2_A | FEC | F2G | _A3 |
A3 | G2_A | FEC | F2G | _A2z |
A3 | G2_A | F3 | GFE | F2z |
_A3 | c2B | c3 |
_A3 | c2B | c3 |
cBc | _AGF | GFE | F2z

@@@ Tune index: 8108
